packages/icons/src/space-between-vertically.svg

<svg width="15" height="15" viewBox="0 0 15 15" fill="none" xmlns="http://www.w3.org/2000/svg">
  <path
    fill-rule="evenodd"
    clip-rule="evenodd"
    d="M0.999878 0.5C0.999878 0.223858 1.22374 0 1.49988 0H13.4999C13.776 0 13.9999 0.223858 13.9999 0.5C13.9999 0.776142 13.776 1 13.4999 1L9 1V5C9 5.55228 8.55228 6 8 6H7C6.44772 6 6 5.55228 6 5V1H1.49988C1.22374 1 0.999878 0.776142 0.999878 0.5ZM7 9C6.44772 9 6 9.44771 6 10V14H1.49988C1.22374 14 0.999878 14.2239 0.999878 14.5C0.999878 14.7761 1.22374 15 1.49988 15H13.4999C13.776 15 13.9999 14.7761 13.9999 14.5C13.9999 14.2239 13.776 14 13.4999 14H9V10C9 9.44772 8.55228 9 8 9H7Z"
    fill="currentColor"
  />
</svg>

<svg xmlns="http://www.w3.org/2000/svg" width="15" height="15" fill="none"><path fill="currentColor" fill-rule="evenodd" d="M1 .5a.5.5 0 0 1 .5-.5h12a.5.5 0 0 1 0 1H9v4a1 1 0 0 1-1 1H7a1 1 0 0 1-1-1V1H1.5A.5.5 0 0 1 1 .5M7 9a1 1 0 0 0-1 1v4H1.5a.5.5 0 0 0 0 1h12a.5.5 0 0 0 0-1H9v-4a1 1 0 0 0-1-1z" clip-rule="evenodd"/></svg>
